public/assets/coin.svg

<svg width="69" height="71" viewBox="0 0 69 71" fill="none" xmlns="http://www.w3.org/2000/svg">
<g filter="url(#filter0_d)">
<ellipse cx="34.8016" cy="33.1293" rx="28" ry="27.5" transform="rotate(-3.38027 34.8016 33.1293)" fill="#E0C358"/>
<path d="M59.9459 33.9412C58.8819 48.8149 45.9618 60.0098 31.0882 58.9459C16.2145 57.8819 5.01951 44.9618 6.0835 30.0882C7.14748 15.2145 20.0675 4.01951 34.9412 5.0835C49.8149 6.14748 61.0098 19.0675 59.9459 33.9412Z" fill="#C5AE39"/>
<path d="M57.8996 34.5154C56.9693 47.5196 43.9076 57.8577 31.0331 56.9368C18.1585 56.0158 7.1436 43.2974 8.03015 30.9041C9.01286 17.1666 20.8725 7.08472 34.7051 8.07423C48.5377 9.06374 58.8823 20.7779 57.8996 34.5154Z" fill="#FFDD66"/>
<path fill-rule="evenodd" clip-rule="evenodd" d="M31.2141 57.1857C45.1156 58.1801 57.1912 47.7168 58.1857 33.8153C59.1801 19.9137 48.7168 7.83815 34.8153 6.8437C20.9137 5.84926 8.83815 16.3125 7.8437 30.2141C6.84926 44.1156 17.3125 56.1912 31.2141 57.1857ZM31.0882 58.9459C45.9618 60.0098 58.8819 48.8149 59.9459 33.9412C61.0098 19.0675 49.8149 6.14748 34.9412 5.0835C20.0675 4.01951 7.14748 15.2145 6.0835 30.0882C5.01951 44.9618 16.2145 57.8819 31.0882 58.9459Z" fill="#F3D35F"/>
<g filter="url(#filter1_d)">
<path d="M31.9371 22.4892L31.2228 30.528L35.3752 30.8715L40.4182 31.0928L40.8007 31.5851L40.0047 36.224L34.5199 35.6921L30.7764 35.4708L30.5615 37.8266L30.1635 47.2829L23.8838 46.8337L24.8423 37.9754L26.0148 17.0442L43.6996 18.3093L44.0326 18.8445L43.2333 23.5297L36.1885 22.7468L31.9371 22.4892Z" fill="#F3D35F"/>
</g>
</g>
<defs>
<filter id="filter0_d" x="0.156982" y="3.15698" width="68.2174" height="67.0754" filterUnits="userSpaceOnUse" color-interpolation-filters="sRGB">
<feFlood flood-opacity="0" result="BackgroundImageFix"/>
<feColorMatrix in="SourceAlpha" type="matrix" values="0 0 0 0 0 0 0 0 0 0 0 0 0 0 0 0 0 0 127 0"/>
<feOffset dy="4"/>
<feGaussianBlur stdDeviation="2"/>
<feColorMatrix type="matrix" values="0 0 0 0 0 0 0 0 0 0 0 0 0 0 0 0 0 0 0.25 0"/>
<feBlend mode="normal" in2="BackgroundImageFix" result="effect1_dropShadow"/>
<feBlend mode="normal" in="SourceGraphic" in2="effect1_dropShadow" result="shape"/>
</filter>
<filter id="filter1_d" x="23.8838" y="17.0442" width="21.1852" height="33.081" filterUnits="userSpaceOnUse" color-interpolation-filters="sRGB">
<feFlood flood-opacity="0" result="BackgroundImageFix"/>
<feColorMatrix in="SourceAlpha" type="matrix" values="0 0 0 0 0 0 0 0 0 0 0 0 0 0 0 0 0 0 127 0"/>
<feOffset dx="1" dy="2"/>
<feColorMatrix type="matrix" values="0 0 0 0 0.879167 0 0 0 0 0.763529 0 0 0 0 0.34434 0 0 0 1 0"/>
<feBlend mode="normal" in2="BackgroundImageFix" result="effect1_dropShadow"/>
<feBlend mode="normal" in="SourceGraphic" in2="effect1_dropShadow" result="shape"/>
</filter>
</defs>
</svg>

<svg width="69" height="71" fill="none" xmlns="http://www.w3.org/2000/svg"><g filter="url(#filter0_d)"><ellipse cx="34.802" cy="33.129" rx="28" ry="27.5" transform="rotate(-3.38 34.802 33.13)" fill="#E0C358"/><path d="M59.946 33.941C58.882 48.815 45.962 60.01 31.088 58.946 16.215 57.882 5.02 44.962 6.083 30.088 7.148 15.214 20.068 4.02 34.942 5.083 49.815 6.148 61.01 19.068 59.946 33.942z" fill="#C5AE39"/><path d="M57.9 34.515c-.93 13.005-13.992 23.343-26.867 22.422-12.875-.921-23.89-13.64-23.003-26.033.983-13.737 12.842-23.82 26.675-22.83 13.833.99 24.177 12.704 23.195 26.441z" fill="#FD6"/><path fill-rule="evenodd" clip-rule="evenodd" d="M31.214 57.186c13.902.994 25.977-9.47 26.972-23.37.994-13.902-9.47-25.978-23.37-26.972-13.902-.995-25.978 9.468-26.972 23.37-.995 13.902 9.468 25.977 23.37 26.972zm-.126 1.76C45.962 60.01 58.882 48.815 59.946 33.94 61.01 19.067 49.815 6.147 34.94 5.083 20.067 4.02 7.147 15.215 6.083 30.088 5.02 44.962 16.215 57.882 31.088 58.946z" fill="#F3D35F"/><g filter="url(#filter1_d)"><path d="M31.937 22.49l-.714 8.038 4.152.344 5.043.22.383.493-.796 4.639-5.485-.532-3.744-.221-.215 2.356-.398 9.456-6.28-.45.96-8.858 1.172-20.93L43.7 18.308l.333.535-.8 4.686-7.044-.783-4.252-.258z" fill="#F3D35F"/></g></g><defs><filter id="filter0_d" x=".157" y="3.157" width="68.217" height="67.075" filterUnits="userSpaceOnUse" color-interpolation-filters="sRGB"><feFlood flood-opacity="0" result="BackgroundImageFix"/><feColorMatrix in="SourceAlpha" values="0 0 0 0 0 0 0 0 0 0 0 0 0 0 0 0 0 0 127 0"/><feOffset dy="4"/><feGaussianBlur stdDeviation="2"/><feColorMatrix values="0 0 0 0 0 0 0 0 0 0 0 0 0 0 0 0 0 0 0.25 0"/><feBlend in2="BackgroundImageFix" result="effect1_dropShadow"/><feBlend in="SourceGraphic" in2="effect1_dropShadow" result="shape"/></filter><filter id="filter1_d" x="23.884" y="17.044" width="21.185" height="33.081" filterUnits="userSpaceOnUse" color-interpolation-filters="sRGB"><feFlood flood-opacity="0" result="BackgroundImageFix"/><feColorMatrix in="SourceAlpha" values="0 0 0 0 0 0 0 0 0 0 0 0 0 0 0 0 0 0 127 0"/><feOffset dx="1" dy="2"/><feColorMatrix values="0 0 0 0 0.879167 0 0 0 0 0.763529 0 0 0 0 0.34434 0 0 0 1 0"/><feBlend in2="BackgroundImageFix" result="effect1_dropShadow"/><feBlend in="SourceGraphic" in2="effect1_dropShadow" result="shape"/></filter></defs></svg>
